X: 336
T: 337. O Gott, du frommer Gott
N: Derived from chor337.krn
C: Johann Sebastian Bach
%%abc-version 2.0
%%abcx-abcm2ps-target-version 5.9.1 (29 Sep 2008)
%%abc-creator hum2abc beta
%%abcx-conversion-date 2019/03/11 17:28:19
%%abc-edited-by Craig Stuart Sapp
%%humdrum-veritas 2825140340
%%humdrum-veritas-data 4117195148
%%
%%barnumbers 0
L: 1/4
M: C
%%staves [1 2 3 4]
V: 1 clef=treble
V: 2 clef=treble
V: 3 clef=treble-8
V: 4 clef=bass
K: F
[V:1] A [I:setbarnb 1]| 
[V:2] E/F//G// | 
[V:3] ^c | 
[V:4] A,, | 
[V:1] AB/c//d//cB//A//B/ | 
[V:2] FFF/E//D//E | 
[V:3] dd/B/ A/G//F//G | 
[V:4] D,/=C,/B,,C,C, | 
[V:1] !fermata!AA/B/cF | 
[V:2] !fermata!FFG/E/F | 
[V:3] !fermata!cc/d/eA/F/ | 
[V:4] !fermata!F,,F,E,D, | 
[V:1] GAG2 | 
[V:2] EFDE | 
[V:3] ccBG | 
[V:4] C,/B,,/ A,,/F,,/ B,,/G,,/ C,/C,,/ | 
[V:1] !fermata!FAAB/c//d// | 
[V:2] !fermata!CFFF/G/ | 
[V:3] !fermata!Acdd/B/- | 
[V:4] !fermata!F,,F,/E,/ D,/C,/ B,,/G,,/ | 
[V:1] cB!fermata!AA/B/ | 
[V:2] E/FE/!fermata!FF | 
[V:3] B/A/ G/c/!fermata!cF/G/ | 
[V:4] C,C,!fermata!F,,D, | 
[V:1] cFGA3//B// | 
[V:2] F/_E/D=EF | 
[V:3] A/G/Fcc | 
[V:4] A,,B,,B,/A,/ G,/F,/ | 
[V:1] G2!fermata!FG | 
[V:2] FE!fermata!CD | 
[V:3] c/B//A// B/G/!fermata!Ad/=B/ | 
[V:4] C,C,!fermata!F,=B,,/G,,/ | 
[V:1] GABB3//c// | 
[V:2] EF-F/E//D//E | 
[V:3] ccd/c//B//c | 
[V:4] C,_B,,/A,,/G,,C, | 
[V:1] !fermata!AAGc/d//_e// | 
[V:2] !fermata!F_EDG | 
[V:3] !fermata!cc=Bc | 
[V:4] !fermata!F,^F,=F,_E,/F,//G,// | 
[V:1] dc/=B/!fermata!cc | 
[V:2] F/_A/ G/F/!fermata!=EG | 
[V:3] c/f/d!fermata!c=e | 
[V:4] _A,/G,//F,// G,/G,,/!fermata!C,C/_B,/ | 
[V:1] c/B/ABc/d//_e// | 
[V:2] FFFF | 
[V:3] ccdc | 
[V:4] A,/G,/ F,/_E,/ D,/C,/ B,,/A,,/ | 
[V:1] !fermata!dGAA | 
[V:2] !fermata!F=ECF- | 
[V:3] !fermata!BBAd | 
[V:4] !fermata!B,,C,F,/=E,/ D,/C,/ | 
[V:1] GG!fermata!F |]  
[V:2] FE!fermata!C |]  
[V:3] d/G/ A/B/!fermata!A |]  
[V:4] B,,/=B,,/C,!fermata!F, |]  



